brandFactory_export/2.Regular/Hotel_2Regular.svg

<?xml version="1.0" encoding="UTF-8"?>
<svg width="24px" height="24px" viewBox="0 0 24 24" version="1.1" xmlns="http://www.w3.org/2000/svg" xmlns:xlink="http://www.w3.org/1999/xlink">
    <title>2.Regular/Hotel_2Regular</title>
    <g id="Symbols" stroke="none" stroke-width="1" fill="none" fill-rule="evenodd">
        <g id="2.Regular/Hotel_2Regular" fill="#5CB615" fill-rule="nonzero">
            <path d="M11.4218487,0 C11.7243697,0 12.0369748,0.00336134454 12.3058824,0.0134453782 C14.6184874,0.0672268908 23.6235294,0.981512605 23.6235294,11.8453782 C23.6235294,22.7327731 14.605042,23.5764706 12.3529412,23.6201681 C12.1176471,23.6235294 11.8789916,23.6268908 11.6436975,23.6268908 C11.5193277,23.6268908 11.394958,23.6268908 11.2739496,23.6235294 C8.90084034,23.5865546 0,22.7294118 0,11.7747899 C0,0.83697479 8.81680672,0.0201680672 11.1865546,0 L11.4218487,0 Z M11.4218487,1.47563025 L11.2,1.47563025 C8.27563025,1.50252101 1.4789916,2.55798319 1.4789916,11.7747899 C1.4789916,21.0084034 8.34285714,22.1042017 11.2941176,22.1445378 C11.4084034,22.1478992 11.5260504,22.1478992 11.6436975,22.1478992 C11.8857143,22.1478992 12.1210084,22.1445378 12.3294118,22.1411765 C15.2806723,22.087395 22.1478992,20.9747899 22.1478992,11.8420168 C22.1445378,2.7092437 15.2403361,1.55966387 12.2689076,1.48571429 C11.9865546,1.4789916 11.7042017,1.47563025 11.4218487,1.47563025 Z M16.4067227,4.85378151 C17.112605,4.85378151 17.687395,5.42521008 17.687395,6.13445378 L17.687395,17.492437 C17.687395,18.1983193 17.1159664,18.7731092 16.4067227,18.7731092 L13.8151261,18.7731092 C13.1092437,18.7731092 12.5344538,18.2016807 12.5344538,17.492437 L12.5344538,13.9865546 L11.0890756,13.9865546 L11.0890756,17.4890756 C11.0890756,18.194958 10.5142857,18.7697479 9.80840336,18.7663866 L7.21680672,18.7663866 C6.51092437,18.7663866 5.93613445,18.194958 5.93613445,17.4857143 L5.93613445,6.13445378 C5.93613445,5.42857143 6.50756303,4.85378151 7.21680672,4.85378151 L9.80840336,4.85378151 C10.5142857,4.85378151 11.0890756,5.42521008 11.0890756,6.13109244 L11.0890756,9.48907563 L12.5310924,9.48907563 L12.5310924,6.13445378 C12.5310924,5.42857143 13.102521,4.85378151 13.8117647,4.85378151 L16.4067227,4.85378151 Z M16.4067227,6.13445378 L13.8151261,6.13445378 L13.8151261,10.7663866 L9.80840336,10.7663866 L9.80840336,6.13445378 L7.21680672,6.13445378 L7.21680672,17.492437 L9.80840336,17.492437 L9.80840336,12.7092437 L13.8151261,12.7092437 L13.8151261,17.492437 L16.4067227,17.492437 L16.4067227,6.13445378 Z" id="Hotel_2Regular"></path>
        </g>
    </g>
</svg>

<svg width="24" height="24" viewBox="0 0 24 24" xmlns="http://www.w3.org/2000/svg"><path d="M11.422 0c.302 0 .615.003.884.013 2.312.054 11.318.969 11.318 11.832 0 10.888-9.019 11.731-11.271 11.775-.235.004-.474.007-.71.007-.124 0-.248 0-.37-.003C8.902 23.587 0 22.729 0 11.774 0 .838 8.817.02 11.187 0h.235zm0 1.476H11.2c-2.924.027-9.721 1.082-9.721 10.299 0 9.233 6.864 10.33 9.815 10.37.114.003.232.003.35.003.242 0 .477-.003.685-.007 2.952-.054 9.819-1.166 9.819-10.299-.003-9.133-6.908-10.282-9.88-10.356-.281-.007-.564-.01-.846-.01zm4.985 3.378c.706 0 1.28.571 1.28 1.28v11.358a1.28 1.28 0 01-1.28 1.281h-2.592a1.28 1.28 0 01-1.28-1.28v-3.506h-1.446v3.502c0 .706-.575 1.28-1.28 1.277H7.216a1.28 1.28 0 01-1.28-1.28V6.134c0-.705.57-1.28 1.28-1.28h2.591c.706 0 1.281.571 1.281 1.277V9.49h1.442V6.134c0-.705.572-1.28 1.28-1.28h2.596zm0 1.28h-2.592v4.632H9.808V6.134H7.217v11.358h2.591V12.71h4.007v4.783h2.592V6.134z" fill="#5CB615" fill-rule="nonzero"/></svg>
